X:89
T:Kerry Mills
B:Terry "Cuz" Teahan "Sliabh Luachra on Parade" 1980
Z:Patrick Cavanagh
M:4/4
L:1/8
R:Barndance
K:D
| AB c/B/A f2f2 | AB c/B/A f2f2 | gfed c2Be | edcB A2A2 | 
| AB c/B/A f2f2 | AB c/B/A f2f2 | gfed cA B/c/d | e/f/e d2 d4 :| 
| a2 ba f2 f2 | ad'ba f2 f2 | gfed c2 B2 | edcB A2 A2 | 
| a2 ba f2 f2 | ad'ba f2 f2 | gfed cA B/c/d | e/f/e d2 d4 :|| 

